/* Generated by tools/ttf2font.py — do not edit by hand.
 *   tools/ttf2font.py 04B_30__.TTF --name speed --chars .0123456789 --size 17 --height 34
 * Glyphs are 34 px tall; strip is 162 px wide.
 * DEFINE_FONT(speed, ".0123456789", 7, 23, 34, 50, 66, 82, 98, 114, 130, 146);
 */
#define font_speed_width 34
#define font_speed_height 162
static char font_speed_bits[] = {
  0xFF, 0xFF, 0xFF, 0xFF, 0xFF, 0xFF, 0xFF, 0x3F, 0xE0, 0xFF, 0xFF, 0xFF,
  0xC7, 0x1F, 0xFF, 0xFF, 0xFF, 0xC7, 0x00, 0xFF, 0xFF, 0xFF, 0xC7, 0x00,
  0xFF, 0xFF, 0xFF, 0x3F, 0xE0, 0xFF, 0xFF, 0xFF, 0xFF, 0xFF, 0xFF, 0xFF,
  0xFF, 0xFF, 0xFF, 0xFF, 0x1F, 0x00, 0x00, 0xE0, 0xFF, 0x7F, 0x00, 0x00,
  0x00, 0xFF, 0x1C, 0x00, 0x00, 0x00, 0xFC, 0x00, 0x00, 0x00, 0x00, 0xFC,
  0x00, 0x00, 0x00, 0x00, 0xFC, 0x00, 0x00, 0x00, 0x00, 0xFC, 0x00, 0x00,
  0x00, 0x00, 0xFC, 0x80, 0xFF, 0xFF, 0x00, 0xFC, 0x80, 0xFF, 0xFF, 0x00,
  0xFC, 0x80, 0xFF, 0xFF, 0x00, 0xFC, 0x00, 0x00, 0x00, 0x00, 0xFC, 0x00,
  0x00, 0x00, 0x00, 0xFC, 0x03, 0x00, 0x00, 0x00, 0xFF, 0x1F, 0x00, 0x00,
  0xE0, 0xFF, 0xFF, 0xFF, 0xFF, 0xFF, 0xFF, 0xFF, 0xFF, 0xFF, 0xFF, 0xFF,
  0x03, 0xFC, 0xFF, 0xFF, 0xFF, 0xFC, 0xFF, 0xFF, 0xFF, 0xFF, 0x1C, 0x00,
  0x00, 0x00, 0xFF, 0x1C, 0x00, 0x00, 0x00, 0xFF, 0x00, 0x00, 0x00, 0x00,
  0xFC, 0x00, 0x00, 0x00, 0x00, 0xFC, 0x00, 0x00, 0x00, 0x00, 0xFC, 0x00,
  0x00, 0x00, 0x00, 0xFC, 0x03, 0x00, 0x00, 0x00, 0xFF, 0xFF, 0xFF, 0xFF,
  0xFF, 0xFF, 0xFF, 0xFF, 0xFF, 0xFF, 0xFF, 0x03, 0x7C, 0x00, 0x00, 0xFF,
  0xFC, 0xFF, 0x01, 0x00, 0xFC, 0x1C, 0x0C, 0x00, 0x00, 0xFC, 0x1C, 0x0C,
  0x00, 0x00, 0xFC, 0x00, 0x0C, 0x00, 0x00, 0xFC, 0x00, 0x0C, 0x00, 0x00,
  0xFC, 0x00, 0x0C, 0x00, 0x00, 0xFC, 0x00, 0x0C, 0x38, 0x00, 0xFC, 0x00,
  0x0C, 0x38, 0x00, 0xFC, 0x00, 0x00, 0x38, 0x00, 0xFC, 0x00, 0x00, 0x38,
  0x00, 0xFC, 0x00, 0x00, 0x38, 0x00, 0xFC, 0x03, 0x80, 0x3F, 0x00, 0xFC,
  0x1F, 0x00, 0xFE, 0x00, 0xFF, 0xFF, 0xFF, 0xFF, 0xFF, 0xFF, 0xFF, 0xFF,
  0xFF, 0xFF, 0xFF, 0x9F, 0xFF, 0xFF, 0xE0, 0xFF, 0x7F, 0x7C, 0x3E, 0x00,
  0xFF, 0x1C, 0x0C, 0x38, 0x00, 0xFC, 0x00, 0x0C, 0x38, 0x00, 0xFC, 0x00,
  0x0C, 0x38, 0x00, 0xFC, 0x00, 0x0C, 0x38, 0x00, 0xFC, 0x00, 0x0C, 0x38,
  0x00, 0xFC, 0x00, 0x0C, 0x38, 0x00, 0xFC, 0x00, 0x0C, 0x38, 0x00, 0xFC,
  0x00, 0x0C, 0x38, 0x00, 0xFC, 0x00, 0x00, 0x00, 0x00, 0xFC, 0x00, 0x00,
  0x00, 0x00, 0xFC, 0x03, 0x00, 0x00, 0x00, 0xFF, 0x1F, 0x00, 0x00, 0xE0,
  0xFF, 0xFF, 0xFF, 0xFF, 0xFF, 0xFF, 0xFF, 0xFF, 0xFF, 0xFF, 0xFF, 0x03,
  0x00, 0xC0, 0xFF, 0xFF, 0xFC, 0x03, 0x00, 0xFF, 0xFF, 0x1C, 0x00, 0x00,
  0xF8, 0xFF, 0x1C, 0x00, 0x00, 0xF8, 0xFF, 0x00, 0x00, 0x00, 0xF8, 0xFF,
  0x03, 0x00, 0x00, 0xF8, 0xFF, 0xFF, 0xFF, 0x01, 0xF8, 0xFF, 0x03, 0x00,
  0x00, 0x00, 0xFF, 0x00, 0x00, 0x00, 0x00, 0xFC, 0x00, 0x00, 0x00, 0x00,
  0xFC, 0x00, 0x00, 0x00, 0x00, 0xFC, 0x03, 0x00, 0x00, 0x00, 0xFF, 0xFF,
  0xFF, 0x01, 0xF8, 0xFF, 0xFF, 0xFF, 0x07, 0xFF, 0xFF, 0xFF, 0xFF, 0xFF,
  0xFF, 0xFF, 0xFF, 0xFF, 0xFF, 0xFF, 0xFF, 0x03, 0x00, 0xFE, 0x00, 0xFF,
  0xFC, 0x03, 0x38, 0x00, 0xFC, 0x1C, 0x00, 0x38, 0x00, 0xFC, 0x1C, 0x00,
  0x38, 0x00, 0xFC, 0x00, 0x00, 0x38, 0x00, 0xFC, 0x00, 0x00, 0x38, 0x00,
  0xFC, 0x00, 0x00, 0x38, 0x00, 0xFC, 0x00, 0x0C, 0x38, 0x00, 0xFC, 0x00,
  0x0C, 0x38, 0x00, 0xFC, 0x00, 0x0C, 0x00, 0x00, 0xFC, 0x00, 0x0C, 0x00,
  0x00, 0xFC, 0x00, 0x0C, 0x00, 0x00, 0xFC, 0x00, 0xFC, 0x01, 0x00, 0xFF,
  0x03, 0xFC, 0x01, 0xE0, 0xFF, 0xFF, 0xFF, 0xFF, 0xFF, 0xFF, 0xFF, 0xFF,
  0xFF, 0xFF, 0xFF, 0x1F, 0x00, 0x00, 0xE0, 0xFF, 0x7F, 0x00, 0x00, 0x00,
  0xFF, 0x1C, 0x00, 0x00, 0x00, 0xFC, 0x00, 0x00, 0x00, 0x00, 0xFC, 0x00,
  0x00, 0x00, 0x00, 0xFC, 0x00, 0x00, 0x00, 0x00, 0xFC, 0x00, 0x00, 0x00,
  0x00, 0xFC, 0x80, 0x7F, 0xFE, 0x00, 0xFC, 0x80, 0x7F, 0xFE, 0x00, 0xFC,
  0x80, 0x7F, 0xFE, 0x00, 0xFC, 0x80, 0x7F, 0x00, 0x00, 0xFC, 0x80, 0x7F,
  0x00, 0x00, 0xFC, 0xE3, 0xFF, 0x01, 0x00, 0xFF, 0xFF, 0xFF, 0x01, 0xE0,
  0xFF, 0xFF, 0xFF, 0xFF, 0xFF, 0xFF, 0xFF, 0xFF, 0xFF, 0xFF, 0xFF, 0x03,
  0xFC, 0xFF, 0xFF, 0xFF, 0xFC, 0xFF, 0xFF, 0xFF, 0xFF, 0x1C, 0xFC, 0xFF,
  0xFF, 0xFF, 0x1C, 0xFC, 0xFF, 0xFF, 0xFF, 0x00, 0xFC, 0x01, 0x00, 0xFF,
  0x00, 0xFC, 0x01, 0x00, 0xFC, 0x00, 0x0C, 0x00, 0x00, 0xFC, 0x00, 0x00,
  0x00, 0x00, 0xFC, 0x00, 0x00, 0x00, 0x00, 0xFC, 0x00, 0x00, 0x00, 0x00,
  0xFF, 0x00, 0x00, 0xFE, 0xFF, 0xFF, 0x00, 0x00, 0xFE, 0xFF, 0xFF, 0x00,
  0x00, 0xFE, 0xFF, 0xFF, 0x03, 0xF0, 0xFF, 0xFF, 0xFF, 0xFF, 0xFF, 0xFF,
  0xFF, 0xFF, 0xFF, 0xFF, 0xFF, 0xFF, 0xFF, 0x1F, 0x80, 0x01, 0xE0, 0xFF,
  0x7F, 0x00, 0x00, 0x00, 0xFF, 0x1C, 0x00, 0x00, 0x00, 0xFC, 0x00, 0x00,
  0x00, 0x00, 0xFC, 0x00, 0x00, 0x00, 0x00, 0xFC, 0x00, 0x00, 0x00, 0x00,
  0xFC, 0x00, 0x00, 0x00, 0x00, 0xFC, 0x80, 0x7F, 0xFE, 0x00, 0xFC, 0x80,
  0x7F, 0xFE, 0x00, 0xFC, 0x80, 0x7F, 0xFE, 0x00, 0xFC, 0x00, 0x00, 0x00,
  0x00, 0xFC, 0x00, 0x00, 0x00, 0x00, 0xFC, 0x03, 0x00, 0x00, 0x00, 0xFF,
  0x1F, 0x80, 0x01, 0xE0, 0xFF, 0xFF, 0xFF, 0xFF, 0xFF, 0xFF, 0xFF, 0xFF,
  0xFF, 0xFF, 0xFF, 0x1F, 0x80, 0xFF, 0xFF, 0xFF, 0x7F, 0x00, 0xFE, 0xFF,
  0xFF, 0x1C, 0x00, 0xF8, 0xFF, 0xFF, 0x00, 0x00, 0xF8, 0x07, 0xFF, 0x00,
  0x00, 0xF8, 0x07, 0xFC, 0x00, 0x00, 0xF8, 0x07, 0xFC, 0x00, 0x00, 0x38,
  0x00, 0xFC, 0x80, 0x7F, 0x00, 0x00, 0xFC, 0x80, 0x7F, 0x00, 0x00, 0xFF,
  0x80, 0x7F, 0x00, 0xF8, 0xFF, 0x00, 0x00, 0x00, 0xF8, 0xFF, 0x00, 0x00,
  0x00, 0xF8, 0xFF, 0x03, 0x00, 0xC0, 0xFF, 0xFF, 0x1F, 0x00, 0xFE, 0xFF,
  0xFF, 0xFF, 0xFF, 0xFF, 0xFF, 0xFF
};
